X:1
T:Nun freut euch
T:Benedictus Ducis 
T:Source  : DDT 34---Leipzig---Breitkopt & Härtel---J.Wolf---1908. First publication : Neue Deudsche Geistliche Gesenge---Wittemberg---G.Rhau---1544. Editor : André Vierendeels (19/07/17).
T:Notes : Original clefs : G2, C1 C3 C4 Original note values have been halved Editorial accidentals above the staff
T:Nun freut euch
T:©
T:©
T:©
T:©
C:Benedictus Ducis
Z:©
%%score [ 1 2 3 4 ]
L:1/8
Q:1/4=120
M:2/2
K:C
V:1 treble nm="Soprano 1" snm="S 1"
V:2 treble nm="Soprano 2" snm="S 2"
V:3 treble nm="Alto" snm="A"
V:4 treble-8 nm="Tenor" snm="T"
V:1
 z8 | z8 | z8 | z8 | z4 z2 c2 | c4 B2 B2 | c3 B A2 d2- | dc c4 B2 | c8 | z8 | z8 | z8 | z4 z2 c2 | %13
w: ||||Nun|freut _ euch,|lie- * ben Chri-|* * sten- ge-|mein,||||und|
 d4 f4 | e4 d2 e2 | ed c3 B/A/cB | c8 | z8 | z8 | z8 | z4 z2 c2 | c4 B4 | c3 B A2 d2- | dc c4 B2 | %24
w: laszt uns|fröh- lich sprin-||gen,||||dasz|wir ge-|trost _ _ und|_ _ all- in-|
 c8 | z8 | z8 | z8 | z4 z2 c2 | d4 f4 | e3 d/c/ d2 e2 | ed c4 B2 | c8 | z8 | z8 | z8 | z4 z2 c2 | %37
w: ein,||||mit|Lust und|Lie- * * * be|sin- * * *|gen,||||was|
 c4 c4 | c4 z2 e2 | c2 d2 e2 dc | B8 | z8 | z8 | z8 | z4 z2 e2 | e4 f4 | edef e2 d2 | dc c4 BA | %48
w: Gott an|uns ge-|wen- * * det _|hat,||||und|sei- ne|süs- * * * * se|Wun- * der- * *|
 B8 | z8 | z8 | z8 | z4 z2 c2 | B3 c d2 d2 | e2 dc Bc d2- | dc c4 B2 | c8 |] %57
w: tat,||||gar|teur _ _ hat|ers _ _ _ _ er-|* * wor- *|ben.|
V:2
 z8 | z8 | z8 | z8 | z4 z2 G2 | G4 G2 G2 | EC c3 B A2 | G2 F2 G4 | G8 | z8 | z8 | z8 | z4 z2 G2 | %13
w: ||||Nun|freut _ euch,|lie- * * * ben|Chri- sten- ge-|mein,||||und|
 B2 B2 A3 B | c4 G4 | E2 F2 G4 | G8 | z8 | z8 | z8 | z4 z2 G2 | G4 G4 | E2 c3 B A2 | G2 F2 G4 | %24
w: laszt uns fröh- *|* lich|sprin- * *|gen,||||dasz|wir ge-|trost und _ _|all- * in-|
 G8 | z8 | z8 | z8 | z4 z2 G2 | B2 B2 A3 B | c4 G4 | E2 F2 G4 | G8 | z8 | z8 | z8 | z4 z2 C2 | %37
w: ein,||||mit|Lust und Lie- *|* be|sin- * *|gen,||||was|
 F4 E4 | F4 G3 F/G/ | A2 G4 F2 | G8 | z8 | z8 | z8 | z4 z2 c2 | c4 A4 | c6 B2 | A4 G4 | G8 | z8 | %50
w: Gott an|uns ge- * *|* wen- det|hat,||||und|sei- ne|süs- se|Wun- der-|tat,||
 z8 | z8 | z4 z2 G2 | G4 G4 | E3 F G2 A2- | A2 F2 G4 | G8 |] %57
w: ||gar|teur hat-|ers _ _ er-|* * wor-|ben.-|
V:3
 z4 z2 C2 | C4 A,4 | C4 F4 | E2 DC D2 D2 | C4 z2 C2 | E4 D2 D2 | C4 F4 | E2 DC D2 D2 | C4 z2 C2 | %9
w: Nun|freut euch,|lie- ben|Chri- * * sten- ge-|mein, nun|freut _ euch,|lie- ben|Chri- * * sten- ge-|mein und|
 D4 F4 | E4 D4 | A,4 B,4 | C4 z2 E2 | G2 G2 F3 G | A2 G3 F ED | C4 D4 | C4 z2 C2 | C4 G,4 | C4 F4 | %19
w: laszt uns|fröh- lich|sprin- *|gen, und|laszt uns fröh- *|* * * lich _|spin- *|gen, dasz|wir ge-|trost und|
 E4 D4 | C4 z2 C2 | E4 D4 | C4 F4 | E2 DC D4 | C4 z2 C2 | D4 F4 | E4 D4 | A,4 B,4 | C4 z2 E2 | %29
w: all- in-|ein, dasz|wir ge-|trost und|all- * * in-|ein, mit|Lust und|Lie- be|sin- *|gen, mit|
 G2 G2 F3 G | A2 G3 F ED | C4 D4 | C4 z2 C2 | F4 E4 | F4 G4 |"^#" G4 F4 | G4 z2 A2 | A4 G4 | %38
w: Lust und Lie- *|* * * be _|sin- *|gen, was|Gott an|uns ge-|wen- det|hat, was|Gott an|
 A2 F2 E4- | E2 D2 C4 | D4 z2 G2 | A4 F4 | G6 F2 | E4 D4 | C4 z2 G2 | A4 F4 | GFGA G2 F2 | E4 E4 | %48
w: uns ge- wen-|* * det|hat, und|sei- ne|süs- se|Wun- der-|tat, un|sei- ne|süs- * * * * se|Wun- der-|
 D4 z2 E2 | D4 G,4 | C4 D4 | E2 DC D4 | C4 z2 E2 | D4 G,4 | C4 DEFE | FEDC D4 | C8 |] %57
w: tat, gar|teur hat|er's er-|wor- * * *|ben, gar|teur hat|er's er- * * *|wor- * * * *|ben.|
V:4
 z8 | z8 | z8 | z8 | z4 z2 c2 | c4 G2 G2 | A4 F4 | G2 A2 G4 | C8 | z8 | z8 | z8 | z4 z2 c2 | %13
w: ||||nun|freut _ euch,|lie- ben|Chri- sten- ge-|mein,||||und|
 G2 G2 d4 | c4 B2 c2 | cB A2 G4 | C8 | z8 | z8 | z8 | z4 z2 c2 | c4 G4 | A4 F4 | G2 A2 G4 | C8 | %25
w: laszt uns fröh-|lich sprin- *||gen,||||dasz|wir ge-|trost und|all- * in-|ein|
 z8 | z8 | z8 | z4 z2 c2 | G2 G2 d4 | c4 B2 c2- | cB A2 G4 | C8 | z8 | z8 | z8 | z4 z2 F2 | %37
w: |||mit|Lust und Lie-|* be sin-||gen,||||was|
 FGAB c2 c2 | F4 c4- | c2 B2 A4 | G8 | z8 | z8 | z8 | z4 z2 c2 | A4 d4 | c6 d2 | A4 c4 | G8 | z8 | %50
w: Got _ _ _ _ an|uns ge|_ wen- det|hat,||||und|sei- ne|süs- se|Wun- der-|tat,||
 z8 | z8 | z4 z2 C2 | G3 A BcdB | c2 BA G2 F2 | A4 G4 | C8 |] %57
w: ||gar|teur hat ers _ _ _|_ _ _ _ er-|wor- *|ben.|

